X: 10317
T: Domenica Di Giugno
R: jig
M: 6/8
K: Gmajor
|:d2E c>FD|c2c A2>|F4 D g2d'|d>cB B2>|
d2>cc f2e|B,2DA2e|C>AG a>fA|G>ff G3:|
ABA BAB|cEG dAE|dBF BAd|Aef CBE|
d2D d>Be|Bdd BGG|A2 G FB,G|d>cc G2>:|

